images/favorites.svg

<svg width="19" height="19" viewBox="0 0 19 19" fill="none" xmlns="http://www.w3.org/2000/svg">
<path d="M9.998 18.671L0 8.692V0H8.692L18.685 10.004L9.998 18.671ZM9.998 17.25L17.264 9.985L8.266 1.019H1V8.285L9.998 17.25ZM3.55 4.558C3.83067 4.558 4.069 4.46067 4.265 4.266C4.461 4.07133 4.55867 3.83533 4.558 3.558C4.558 3.27467 4.46067 3.034 4.266 2.836C4.07133 2.638 3.83533 2.539 3.558 2.539C3.27467 2.539 3.034 2.63733 2.836 2.834C2.638 3.03067 2.539 3.26933 2.539 3.55C2.539 3.83067 2.63733 4.069 2.834 4.265C3.03067 4.461 3.26933 4.55867 3.55 4.558ZM10 13.923L13.039 10.769C13.1837 10.6243 13.294 10.4557 13.37 10.263C13.446 10.071 13.484 9.859 13.484 9.627C13.484 9.201 13.333 8.82967 13.031 8.513C12.7283 8.19633 12.363 8.038 11.935 8.038C11.609 8.038 11.2877 8.12333 10.971 8.294C10.6543 8.46467 10.3307 8.76667 10 9.2C9.65333 8.75933 9.326 8.45567 9.018 8.289C8.71 8.12233 8.39233 8.039 8.065 8.039C7.637 8.039 7.27167 8.19733 6.969 8.514C6.667 8.83067 6.516 9.20167 6.516 9.627C6.516 9.859 6.554 10.0713 6.63 10.264C6.706 10.456 6.81633 10.6243 6.961 10.769L10 13.923Z" fill="black"/>
</svg>

<svg width="19" height="19" fill="none" xmlns="http://www.w3.org/2000/svg"><path d="M9.998 18.671L0 8.692V0h8.692l9.993 10.004-8.687 8.667zm0-1.421l7.266-7.265-8.998-8.966H1v7.266l8.998 8.965zM3.55 4.558c.28 0 .519-.097.715-.292a.957.957 0 00.293-.708.991.991 0 00-.292-.722.956.956 0 00-.708-.297.986.986 0 00-.722.295.972.972 0 00-.297.716c0 .28.098.519.295.715a.973.973 0 00.716.293zM10 13.923l3.039-3.154a1.47 1.47 0 00.331-.506c.076-.192.114-.404.114-.636 0-.426-.151-.797-.453-1.114a1.461 1.461 0 00-1.096-.475c-.326 0-.647.085-.964.256-.317.17-.64.473-.971.906-.347-.44-.674-.744-.982-.911a1.978 1.978 0 00-.953-.25 1.46 1.46 0 00-1.096.475 1.561 1.561 0 00-.453 1.113c0 .232.038.444.114.637.076.192.186.36.331.505L10 13.923z" fill="#000"/></svg>
